build/images/icons/comment-icon.svg

<svg width="14" height="14" viewBox="0 0 14 14" fill="none" xmlns="http://www.w3.org/2000/svg">
<path id="Vector" d="M7.00019 14.0005C10.8599 14.0005 14 10.8603 14 7.00049C14 3.14068 10.8599 0.000488281 7.00019 0.000488281C3.14044 0.000488281 0.000405625 3.14068 0.000405625 7.00049C0.000405625 8.69974 0.601922 10.3068 1.70429 11.5784L0.148823 13.1134C-0.166435 13.4245 0.0519509 13.9651 0.496836 13.9672C0.500262 13.9673 6.99679 14.0005 7.00019 14.0005V14.0005ZM4.02403 4.52305H10.0096C10.2851 4.52305 10.5084 4.74639 10.5084 5.02187C10.5084 5.29734 10.2851 5.52068 10.0096 5.52068H4.02403C3.74854 5.52068 3.52524 5.29734 3.52524 5.02187C3.52524 4.74639 3.74858 4.52305 4.02403 4.52305ZM4.02403 6.5183H10.0096C10.2851 6.5183 10.5084 6.74164 10.5084 7.01712C10.5084 7.29259 10.2851 7.51593 10.0096 7.51593H4.02403C3.74854 7.51593 3.52524 7.29259 3.52524 7.01712C3.52524 6.74164 3.74858 6.5183 4.02403 6.5183ZM3.52524 9.01237C3.52524 8.73689 3.74854 8.51355 4.02403 8.51355H10.0096C10.2851 8.51355 10.5084 8.73689 10.5084 9.01237C10.5084 9.28784 10.2851 9.51118 10.0096 9.51118H4.02403C3.74858 9.51118 3.52524 9.28784 3.52524 9.01237Z" fill="#BED8E8"/>
</svg>

<svg width="14" height="14" fill="none" xmlns="http://www.w3.org/2000/svg"><path d="M7 14c3.86 0 7-3.14 7-7s-3.14-7-7-7-7 3.14-7 7c0 1.7.602 3.307 1.704 4.578L.15 13.113a.5.5 0 0 0 .348.854L7 14.001ZM4.024 4.524h5.986a.499.499 0 0 1 0 .998H4.024a.499.499 0 0 1 0-.998Zm0 1.995h5.986a.499.499 0 0 1 0 .998H4.024a.499.499 0 0 1 0-.998Zm-.499 2.494c0-.275.224-.498.499-.498h5.986a.499.499 0 0 1 0 .997H4.024a.499.499 0 0 1-.499-.499Z" fill="#BED8E8"/></svg>
